; generated by Slic3r Prusa Edition 1.40.0+win64 on 2018-06-14 at 17:50:51

; 

; external perimeters extrusion width = 0.45mm
; perimeters extrusion width = 0.45mm
; infill extrusion width = 0.45mm
; solid infill extrusion width = 0.45mm
; top infill extrusion width = 0.40mm
; support material extrusion width = 0.35mm
; first layer extrusion width = 0.42mm

M107
M83 ; extruder relative mode
M104 S195 ; Set nozzle temp 40c below first layer temp.
M140 S60 ; set bed temp
M190 S60 ; wait for bed temp
M106 S255 ; wait extruder temp
M109 S235 ; wait for extruder temp
SET_VELOCITY_LIMIT ACCEL=1000
G80 ; Mesh Bed Leveling
G1 X0.0 Y-3.0 F3000.0         ; Go outside print area
G92 E0.0             ; Reset extrusion length
G1 X60.0 E9.0  F1000.0         ; Print priming intro line 
G1 X100.0 E12.5  F1000.0         ; Print intro line
G92 E0.0             ; Reset extrusion length
; SET_VELOCITY_LIMIT ACCEL=4000
M900 K30; Filament gcode
G21 ; set units to millimeters
G90 ; use absolute coordinates
M83 ; use relative distances for extrusion
;BEFORE_LAYER_CHANGE
;0.2
;LAYER:0
G1 Z0.200 F21000.000
;AFTER_LAYER_CHANGE
;0.2
G1 E-0.40000 F2400.00000
G1 Z0.400 F21000.000
G1 X123.535 Y89.110
G1 Z0.200
G1 E0.40000 F2400.00000
M204 S1500
G1 F3000
G1 X124.251 Y88.896 E0.02247
G1 X125.040 Y88.822 E0.02386
G1 X125.745 Y88.895 E0.02134
G1 X126.422 Y89.094 E0.02124
G1 X128.029 Y90.022 E0.05586
G1 X129.958 Y91.528 E0.07366
G1 X131.656 Y93.271 E0.07323
G1 X132.940 Y94.976 E0.06425
G1 X134.031 Y96.858 E0.06548
G1 X134.900 Y98.886 E0.06643
G1 X135.520 Y101.034 E0.06728
G1 X135.876 Y103.295 E0.06891
G1 X135.941 Y105.633 E0.07039
G1 X134.394 Y129.870 E0.73101
G1 X134.068 Y131.060 E0.03715
G1 X133.385 Y132.145 E0.03858
G1 X132.867 Y132.649 E0.02177
G1 X132.358 Y133.006 E0.01870
G1 X131.184 Y133.490 E0.03823
G1 X130.080 Y133.628 E0.03348
G1 X119.359 Y133.592 E0.32271
G1 X118.726 Y133.466 E0.01942
G1 X118.025 Y133.208 E0.02250
G1 X117.447 Y132.882 E0.01997
G1 X116.933 Y132.475 E0.01975
G1 X116.480 Y131.982 E0.02014
G1 X116.074 Y131.356 E0.02245
G1 X115.809 Y130.742 E0.02013
G1 X115.641 Y130.095 E0.02013
G1 X114.068 Y105.842 E0.73153
G1 X114.057 Y104.363 E0.04452
G1 X114.184 Y102.741 E0.04899
G1 X114.655 Y100.322 E0.07418
G1 X115.426 Y98.041 E0.07248
G1 X116.471 Y95.927 E0.07098
G1 X117.831 Y93.903 E0.07339
G1 X118.706 Y92.858 E0.04101
G1 X119.660 Y91.881 E0.04111
G1 X121.676 Y90.226 E0.07851
G1 X123.484 Y89.141 E0.06346
M204 S4000
G1 X123.587 Y89.499 F21000.000
M204 S1500
G1 F3000
G1 X124.294 Y89.272 E0.02234
G1 X125.040 Y89.199 E0.02257
G1 X125.677 Y89.266 E0.01928
G1 X126.297 Y89.450 E0.01946
G1 X127.835 Y90.346 E0.05360
G1 X129.709 Y91.812 E0.07162
G1 X131.399 Y93.551 E0.07299
G1 X132.628 Y95.188 E0.06161
G1 X133.696 Y97.029 E0.06405
G1 X134.545 Y99.014 E0.06500
G1 X135.155 Y101.132 E0.06633
G1 X135.501 Y103.331 E0.06701
G1 X135.564 Y105.619 E0.06888
G1 X134.020 Y129.824 E0.73006
G1 X133.682 Y130.997 E0.03673
G1 X133.027 Y131.981 E0.03561
G1 X132.126 Y132.705 E0.03478
G1 X131.061 Y133.132 E0.03454
G1 X130.073 Y133.251 E0.02996
G1 X119.408 Y133.218 E0.32102
G1 X118.827 Y133.103 E0.01781
G1 X118.167 Y132.859 E0.02119
G1 X117.172 Y132.182 E0.03620
G1 X116.707 Y131.657 E0.02114
G1 X116.391 Y131.149 E0.01800
G1 X116.155 Y130.586 E0.01836
G1 X115.997 Y129.938 E0.02008
G1 X114.445 Y105.822 E0.72739
G1 X114.434 Y104.364 E0.04388
G1 X114.558 Y102.787 E0.04764
G1 X115.019 Y100.417 E0.07265
G1 X115.775 Y98.183 E0.07099
G1 X116.798 Y96.114 E0.06947
G1 X118.122 Y94.142 E0.07151
G1 X119.717 Y92.350 E0.07220
G1 X120.707 Y91.450 E0.04027
G1 X121.776 Y90.618 E0.04077
G1 X123.536 Y89.530 E0.06228
M204 S4000
G1 F16800
G1 X124.294 Y89.272 E-0.10865
G1 X125.040 Y89.199 E-0.10177
G1 X125.677 Y89.266 E-0.08693
G1 X126.261 Y89.439 E-0.08266
G1 E-0.02000 F2400.00000
G1 Z0.400 F21000.000
G1 X123.000 Y125.455
G1 Z0.200
G1 E0.40000 F2400.00000
M204 S1500
G1 F3000
G1 X123.154 Y125.497 E0.00481
G1 X123.405 Y125.655 E0.00892
G1 X123.541 Y125.833 E0.00677
G1 X123.597 Y125.986 E0.00488
G1 X123.608 Y126.187 E0.00607
G1 X123.557 Y126.407 E0.00681
G1 X123.445 Y126.649 E0.00802
G1 X123.158 Y127.126 E0.01675
G1 X123.084 Y127.381 E0.00798
G1 X123.086 Y127.594 E0.00644
G1 X123.130 Y127.808 E0.00658
G1 X123.214 Y128.016 E0.00675
G1 X123.332 Y128.199 E0.00656
G1 X123.420 Y128.297 E0.00395
G1 X123.584 Y128.427 E0.00631
G1 X123.796 Y128.539 E0.00722
G1 X123.960 Y128.600 E0.00526
G1 X124.147 Y128.651 E0.00583
G1 X124.482 Y128.704 E0.01022
G1 X125.081 Y128.726 E0.01803
G1 X125.640 Y128.679 E0.01690
G1 X125.950 Y128.608 E0.00955
G1 X126.131 Y128.542 E0.00581
G1 X126.283 Y128.467 E0.00510
G1 X126.470 Y128.334 E0.00690
G1 X126.554 Y128.251 E0.00357
G1 X126.679 Y128.080 E0.00637
G1 X126.774 Y127.879 E0.00670
G1 X126.833 Y127.658 E0.00687
G1 X126.853 Y127.424 E0.00707
G1 X126.831 Y127.179 E0.00742
G1 X126.740 Y126.903 E0.00873
G1 X126.667 Y126.806 E0.00365
G1 X126.505 Y126.678 E0.00622
G1 X126.422 Y126.567 E0.00418
G1 X126.362 Y126.435 E0.00435
G1 X126.327 Y126.224 E0.00645
G1 X126.354 Y125.989 E0.00712
G1 X126.483 Y125.703 E0.00944
G1 X126.692 Y125.502 E0.00872
G1 X126.910 Y125.426 E0.00694
G1 X127.052 Y125.421 E0.00429
G1 X127.177 Y125.463 E0.00396
G1 X127.497 Y125.631 E0.01089
G1 X127.726 Y125.825 E0.00901
G1 X127.914 Y126.056 E0.00897
G1 X128.064 Y126.327 E0.00931
G1 X128.173 Y126.633 E0.00980
G1 X128.224 Y126.862 E0.00704
G1 X128.262 Y127.232 E0.01120
G1 X128.257 Y127.655 E0.01275
G1 X128.224 Y127.926 E0.00821
G1 X128.160 Y128.211 E0.00878
G1 X128.035 Y128.554 E0.01098
G1 X127.922 Y128.775 E0.00747
G1 X127.720 Y129.072 E0.01082
G1 X127.475 Y129.340 E0.01095
G1 X127.191 Y129.572 E0.01102
G1 X126.875 Y129.763 E0.01111
G1 X126.399 Y129.957 E0.01549
G1 X125.991 Y130.058 E0.01264
G1 X125.525 Y130.124 E0.01416
G1 X124.804 Y130.147 E0.02172
G1 X124.282 Y130.110 E0.01574
G1 X123.652 Y129.991 E0.01929
G1 X123.373 Y129.902 E0.00884
G1 X123.015 Y129.741 E0.01181
G1 X122.793 Y129.608 E0.00779
G1 X122.503 Y129.385 E0.01100
G1 X122.326 Y129.210 E0.00750
G1 X122.101 Y128.925 E0.01094
G1 X121.872 Y128.503 E0.01445
G1 X121.726 Y128.038 E0.01467
G1 X121.665 Y127.535 E0.01525
G1 X121.680 Y127.048 E0.01467
G1 X121.747 Y126.668 E0.01161
G1 X121.897 Y126.264 E0.01297
G1 X122.139 Y125.893 E0.01333
G1 X122.282 Y125.735 E0.00641
G1 X122.474 Y125.578 E0.00746
G1 X122.615 Y125.502 E0.00484
G1 X122.821 Y125.447 E0.00640
G1 X122.940 Y125.452 E0.00358
M204 S4000
G1 X123.098 Y125.329 F21000.000
G1 X121.823 Y124.311
M204 S1500
G1 F3000
G1 X121.803 Y124.162 E0.00454
G1 X121.846 Y123.516 E0.01948
G1 X121.831 Y120.279 E0.09744
G1 X121.859 Y120.052 E0.00688
G1 X121.979 Y119.822 E0.00779
G1 X122.202 Y119.681 E0.00797
G1 X122.450 Y119.634 E0.00758
G1 X122.669 Y119.647 E0.00662
G1 X122.898 Y119.731 E0.00734
G1 X123.049 Y119.868 E0.00614
G1 X123.142 Y120.046 E0.00604
G1 X123.193 Y120.267 E0.00682
G1 X123.220 Y120.657 E0.01178
G1 X123.201 Y121.444 E0.02369
G1 X123.235 Y121.532 E0.00286
G1 X123.451 Y121.564 E0.00658
G1 X126.523 Y121.564 E0.09244
G1 X127.169 Y121.542 E0.01947
G1 X127.448 Y121.557 E0.00841
G1 X127.617 Y121.594 E0.00520
G1 X127.821 Y121.682 E0.00671
G1 X128.022 Y121.880 E0.00846
G1 X128.099 Y122.074 E0.00631
G1 X128.121 Y122.226 E0.00462
G1 X128.114 Y122.390 E0.00493
G1 X128.054 Y122.609 E0.00683
G1 X127.978 Y122.743 E0.00463
G1 X127.834 Y122.875 E0.00589
G1 X127.652 Y122.938 E0.00578
G1 X127.504 Y122.952 E0.00447
G1 X126.927 Y122.911 E0.01742
G1 X124.145 Y122.928 E0.08374
G1 X123.581 Y122.892 E0.01701
G1 X123.409 Y122.916 E0.00524
G1 X123.337 Y122.954 E0.00243
G1 X123.270 Y123.021 E0.00286
G1 X123.193 Y123.201 E0.00588
G1 X123.180 Y123.456 E0.00769
G1 X123.255 Y124.108 E0.01976
G1 X123.235 Y124.328 E0.00666
G1 X123.157 Y124.518 E0.00617
G1 X122.960 Y124.702 E0.00811
G1 X122.678 Y124.805 E0.00904
G1 X122.370 Y124.802 E0.00928
G1 X122.154 Y124.726 E0.00691
G1 X122.021 Y124.636 E0.00482
G1 X121.887 Y124.476 E0.00630
G1 X121.845 Y124.367 E0.00350
M204 S4000
G1 X121.677 Y124.273 F21000.000
G1 F16800
G1 X121.803 Y124.162 E-0.02844
G1 X121.846 Y123.516 E-0.08781
G1 X121.837 Y121.573 E-0.26375
G1 E-0.02000 F2400.00000
G1 Z0.400 F21000.000
G1 X120.112 Y124.909
G1 X120.003 Y119.170
G1 X119.785 Y117.863
G1 X122.818 Y117.481
G1 X122.873 Y117.356
G1 X123.573 Y117.691
G1 Z0.200
G1 E0.40000 F2400.00000
M204 S1500
G1 F3000
G1 X123.403 Y117.413 E0.00979
G1 X123.368 Y117.266 E0.00457
G1 X123.434 Y117.277 E0.00201
G1 X123.504 Y117.361 E0.00329
G1 X123.563 Y117.632 E0.00833
M204 S4000
G1 X123.401 Y118.509 F21000.000
M204 S1500
G1 F3000
G1 X123.312 Y118.667 E0.00546
G1 X123.154 Y118.828 E0.00678
G1 X122.945 Y118.950 E0.00730
G1 X122.728 Y119.007 E0.00677
G1 X122.576 Y119.004 E0.00457
G1 X122.391 Y118.943 E0.00585
G1 X122.262 Y118.860 E0.00462
G1 X122.093 Y118.691 E0.00720
G1 X121.890 Y118.367 E0.01150
G1 X121.742 Y117.960 E0.01303
G1 X121.665 Y117.433 E0.01605
G1 X121.666 Y117.011 E0.01269
G1 X121.718 Y116.604 E0.01234
G1 X121.837 Y116.205 E0.01254
G1 X121.984 Y115.933 E0.00931
G1 X122.238 Y115.643 E0.01160
G1 X122.552 Y115.438 E0.01130
G1 X122.886 Y115.340 E0.01046
G1 X123.085 Y115.322 E0.00601
G1 X123.676 Y115.358 E0.01783
G1 X123.933 Y115.419 E0.00796
G1 X124.142 Y115.524 E0.00703
G1 X124.317 Y115.683 E0.00713
G1 X124.456 Y115.896 E0.00764
G1 X124.507 Y116.010 E0.00374
G1 X124.608 Y115.770 E0.00783
G1 X124.698 Y115.634 E0.00490
G1 X124.860 Y115.479 E0.00676
G1 X125.066 Y115.358 E0.00719
G1 X125.377 Y115.247 E0.00993
G1 X125.810 Y115.127 E0.01353
G1 X126.158 Y115.080 E0.01057
G1 X126.435 Y115.089 E0.00835
G1 X126.744 Y115.149 E0.00949
G1 X127.060 Y115.264 E0.01012
G1 X127.271 Y115.372 E0.00713
G1 X127.546 Y115.564 E0.01012
G1 X127.780 Y115.793 E0.00984
G1 X127.968 Y116.054 E0.00967
G1 X128.073 Y116.252 E0.00676
G1 X128.182 Y116.554 E0.00967
G1 X128.246 Y116.884 E0.01010
G1 X128.267 Y117.276 E0.01183
G1 X128.247 Y117.678 E0.01211
G1 X128.180 Y118.041 E0.01111
G1 X128.087 Y118.322 E0.00891
G1 X127.917 Y118.624 E0.01045
G1 X127.732 Y118.814 E0.00795
G1 X127.468 Y118.958 E0.00907
G1 X127.147 Y119.012 E0.00978
G1 X126.860 Y118.953 E0.00884
G1 X126.721 Y118.868 E0.00488
G1 X126.589 Y118.718 E0.00601
G1 X126.507 Y118.527 E0.00629
G1 X126.477 Y118.361 E0.00508
G1 X126.500 Y118.045 E0.00952
G1 X126.607 Y117.788 E0.00837
G1 X126.927 Y117.333 E0.01676
G1 X126.958 Y117.208 E0.00387
G1 X126.948 Y117.098 E0.00334
G1 X126.873 Y116.906 E0.00618
G1 X126.741 Y116.743 E0.00633
G1 X126.534 Y116.622 E0.00722
G1 X126.316 Y116.582 E0.00665
G1 X126.169 Y116.597 E0.00445
G1 X125.946 Y116.681 E0.00716
G1 X125.782 Y116.790 E0.00595
G1 X125.630 Y116.940 E0.00644
G1 X125.512 Y117.112 E0.00627
G1 X125.429 Y117.303 E0.00628
G1 X125.333 Y117.792 E0.01501
G1 X125.268 Y118.013 E0.00692
G1 X125.118 Y118.218 E0.00766
G1 X124.875 Y118.321 E0.00794
G1 X124.646 Y118.325 E0.00690
G1 X124.417 Y118.268 E0.00710
G1 X124.264 Y118.192 E0.00515
G1 X124.093 Y118.044 E0.00678
G1 X123.974 Y117.802 E0.00814
G1 X123.897 Y117.347 E0.01389
G1 X123.846 Y117.197 E0.00476
G1 X123.767 Y117.073 E0.00443
G1 X123.660 Y116.972 E0.00443
G1 X123.544 Y116.906 E0.00402
G1 X123.436 Y116.881 E0.00333
G1 X123.273 Y116.896 E0.00494
G1 X123.165 Y116.941 E0.00352
G1 X123.077 Y117.012 E0.00339
G1 X123.024 Y117.092 E0.00289
G1 X122.993 Y117.192 E0.00317
G1 X122.990 Y117.325 E0.00400
G1 X123.023 Y117.484 E0.00489
G1 X123.066 Y117.586 E0.00333
G1 X123.394 Y118.120 E0.01886
G1 X123.436 Y118.317 E0.00606
G1 X123.412 Y118.450 E0.00406
M204 S4000
G1 X123.520 Y118.646 F21000.000
G1 F16800
G1 X123.312 Y118.667 E-0.03243
G1 X123.154 Y118.828 E-0.03058
G1 X122.945 Y118.950 E-0.03291
G1 X122.728 Y119.007 E-0.03051
G1 X122.576 Y119.004 E-0.02060
G1 X122.391 Y118.943 E-0.02640
G1 X122.262 Y118.860 E-0.02083
G1 X122.093 Y118.691 E-0.03248
G1 X121.890 Y118.367 E-0.05185
G1 X121.742 Y117.960 E-0.05875
G1 X121.697 Y117.649 E-0.04266
G1 E-0.02000 F2400.00000
G1 Z0.400 F21000.000
G1 X124.053 Y118.970
G1 X121.479 Y114.503
G1 X122.052 Y113.959
G1 Z0.200
G1 E0.40000 F2400.00000
M204 S1500
G1 F3000
G1 X121.959 Y113.839 E0.00458
G1 X121.855 Y113.569 E0.00870
G1 X121.824 Y113.272 E0.00899
G1 X121.860 Y111.665 E0.04839
G1 X121.896 Y111.352 E0.00949
G1 X121.975 Y110.959 E0.01205
G1 X122.081 Y110.643 E0.01005
G1 X122.227 Y110.364 E0.00947
G1 X122.422 Y110.104 E0.00979
G1 X122.631 Y109.897 E0.00885
G1 X122.914 Y109.684 E0.01066
G1 X123.241 Y109.502 E0.01126
G1 X123.606 Y109.358 E0.01181
G1 X124.007 Y109.255 E0.01246
G1 X124.474 Y109.189 E0.01420
G1 X124.864 Y109.171 E0.01176
G1 X125.329 Y109.183 E0.01399
G1 X125.667 Y109.220 E0.01022
G1 X126.114 Y109.311 E0.01373
G1 X126.515 Y109.446 E0.01275
G1 X126.869 Y109.621 E0.01189
G1 X127.176 Y109.831 E0.01119
G1 X127.441 Y110.079 E0.01090
G1 X127.666 Y110.361 E0.01087
G1 X127.834 Y110.660 E0.01033
G1 X127.918 Y110.871 E0.00684
G1 X128.007 Y111.213 E0.01064
G1 X128.067 Y111.630 E0.01269
G1 X128.094 Y112.150 E0.01567
G1 X128.086 Y112.969 E0.02465
G1 X128.129 Y113.491 E0.01577
G1 X128.066 Y113.751 E0.00806
G1 X127.890 Y113.941 E0.00780
G1 X127.621 Y114.056 E0.00880
G1 X127.270 Y114.098 E0.01063
G1 X126.665 Y114.080 E0.01823
G1 X123.051 Y114.076 E0.10878
G1 X122.499 Y114.119 E0.01667
G1 X122.216 Y114.074 E0.00861
G1 X122.101 Y113.994 E0.00422
M204 S4000
G1 X121.908 Y114.008 F21000.000
G1 F16800
G1 X121.959 Y113.839 E-0.02853
G1 X121.855 Y113.569 E-0.03922
G1 X121.824 Y113.272 E-0.04053
G1 X121.860 Y111.665 E-0.21816
G1 X121.896 Y111.352 E-0.04278
G1 X121.912 Y111.274 E-0.01077
G1 E-0.02000 F2400.00000
G1 Z0.400 F21000.000
G1 X121.368 Y114.886
G1 X119.960 Y114.901
G1 X119.722 Y113.530
G1 X119.702 Y110.784
G1 X119.935 Y109.153
G1 X120.451 Y107.553
G1 X123.000 Y107.916
G1 X124.789 Y107.764
G1 X125.337 Y108.361
G1 X126.212 Y108.308
G1 X126.755 Y109.279
G1 Z0.200
G1 E0.40000 F2400.00000
M204 S1500
G1 F3000
G1 X126.577 Y109.151 E0.00660
G1 X126.425 Y108.996 E0.00655
G1 X126.260 Y108.731 E0.00939
G1 X126.189 Y108.523 E0.00662
G1 X126.156 Y108.308 E0.00654
G1 X126.176 Y107.998 E0.00936
G1 X126.238 Y107.787 E0.00662
G1 X126.335 Y107.596 E0.00645
G1 X126.462 Y107.425 E0.00640
G1 X126.618 Y107.278 E0.00646
G1 X126.798 Y107.162 E0.00645
G1 X127.000 Y107.077 E0.00658
G1 X127.306 Y107.022 E0.00937
G1 X127.525 Y107.032 E0.00661
G1 X127.738 Y107.080 E0.00657
G1 X128.019 Y107.213 E0.00935
G1 X128.192 Y107.347 E0.00661
G1 X128.338 Y107.511 E0.00660
G1 X128.490 Y107.783 E0.00937
G1 X128.552 Y107.993 E0.00661
G1 X128.575 Y108.205 E0.00642
G1 X128.560 Y108.419 E0.00645
G1 X128.509 Y108.626 E0.00641
G1 X128.421 Y108.826 E0.00659
G1 X128.248 Y109.060 E0.00875
G1 X128.069 Y109.218 E0.00719
G1 X127.883 Y109.326 E0.00647
G1 X127.683 Y109.400 E0.00643
G1 X127.472 Y109.438 E0.00644
G1 X127.257 Y109.438 E0.00648
G1 X127.042 Y109.399 E0.00658
G1 X126.810 Y109.302 E0.00755
M204 S4000
G1 X126.566 Y109.390 F21000.000
G1 F16800
G1 X126.577 Y109.151 E-0.03775
G1 X126.425 Y108.996 E-0.02952
G1 X126.260 Y108.731 E-0.04235
G1 X126.189 Y108.523 E-0.02983
G1 X126.156 Y108.308 E-0.02949
G1 X126.176 Y107.998 E-0.04220
G1 X126.238 Y107.787 E-0.02983
G1 X126.335 Y107.596 E-0.02909
G1 X126.462 Y107.425 E-0.02884
G1 X126.618 Y107.278 E-0.02912
G1 X126.798 Y107.162 E-0.02910
G1 X126.954 Y107.096 E-0.02287
G1 E-0.02000 F2400.00000
G1 Z0.400 F21000.000
G1 X126.212 Y108.308
G1 X128.248 Y102.425
G1 X127.932 Y103.149
G1 Z0.200
G1 E0.40000 F2400.00000
M204 S1500
G1 F3000
G1 X128.064 Y103.225 E0.00457
G1 X128.194 Y103.368 E0.00582
G1 X128.263 Y103.506 E0.00465
G1 X128.309 Y103.713 E0.00639
G1 X128.305 Y103.879 E0.00500
G1 X128.244 Y104.080 E0.00631
G1 X128.124 Y104.240 E0.00603
G1 X128.004 Y104.342 E0.00475
G1 X127.030 Y104.894 E0.03369
G1 X127.605 Y105.177 E0.01931
G1 X127.950 Y105.408 E0.01249
G1 X128.136 Y105.570 E0.00740
G1 X128.272 Y105.788 E0.00775
G1 X128.295 Y106.010 E0.00670
G1 X128.212 Y106.276 E0.00840
G1 X128.022 Y106.499 E0.00880
G1 X127.832 Y106.594 E0.00639
G1 X127.631 Y106.612 E0.00610
G1 X127.417 Y106.570 E0.00655
G1 X127.252 Y106.504 E0.00535
G1 X126.327 Y105.977 E0.03205
G1 X125.866 Y105.650 E0.01702
G1 X125.773 Y105.617 E0.00297
G1 X125.666 Y105.650 E0.00336
G1 X125.221 Y105.937 E0.01594
